source/img/icons/car.svg

<svg width="32" height="32" viewBox="0 0 32 32" fill="none" xmlns="http://www.w3.org/2000/svg">
<path d="M25.3333 9.33335C25.3333 7.86669 24.1333 6.66669 22.6667 6.66669H18.6667V9.33335H22.6667V12.8667L18.0267 18.6667H13.3333V12H7.99999C5.05332 12 2.66666 14.3867 2.66666 17.3334V21.3334H5.33332C5.33332 23.5467 7.11999 25.3334 9.33332 25.3334C11.5467 25.3334 13.3333 23.5467 13.3333 21.3334H19.3067L25.3333 13.8V9.33335ZM5.33332 18.6667V17.3334C5.33332 15.8667 6.53332 14.6667 7.99999 14.6667H10.6667V18.6667H5.33332ZM9.33332 22.6667C8.59999 22.6667 7.99999 22.0667 7.99999 21.3334H10.6667C10.6667 22.0667 10.0667 22.6667 9.33332 22.6667Z" fill="#0F805D"/>
<path d="M6.66666 8.00002H13.3333V10.6667H6.66666V8.00002ZM25.3333 17.3334C23.12 17.3334 21.3333 19.12 21.3333 21.3334C21.3333 23.5467 23.12 25.3334 25.3333 25.3334C27.5467 25.3334 29.3333 23.5467 29.3333 21.3334C29.3333 19.12 27.5467 17.3334 25.3333 17.3334ZM25.3333 22.6667C24.6 22.6667 24 22.0667 24 21.3334C24 20.6 24.6 20 25.3333 20C26.0667 20 26.6667 20.6 26.6667 21.3334C26.6667 22.0667 26.0667 22.6667 25.3333 22.6667Z" fill="#0F805D"/>
</svg>

<svg xmlns="http://www.w3.org/2000/svg" width="32" height="32" fill="none"><path fill="#0F805D" d="M25.33 9.33c0-1.46-1.2-2.66-2.66-2.66h-4v2.66h4v3.54l-4.64 5.8h-4.7V12H8a5.33 5.33 0 0 0-5.33 5.33v4h2.66a4 4 0 1 0 8 0h5.98l6.02-7.53V9.33Zm-20 9.34v-1.34c0-1.46 1.2-2.66 2.67-2.66h2.67v4H5.33Zm4 4c-.73 0-1.33-.6-1.33-1.34h2.67c0 .74-.6 1.34-1.34 1.34Z"/><path fill="#0F805D" d="M6.67 8h6.66v2.67H6.67V8Zm18.66 9.33a4 4 0 1 0 0 8 4 4 0 0 0 0-8Zm0 5.34a1.34 1.34 0 0 1 0-2.67c.74 0 1.34.6 1.34 1.33 0 .74-.6 1.34-1.34 1.34Z"/></svg>
